packages/components/bolt-icons/src/svgs/utility/print.svg

<?xml version="1.0" encoding="UTF-8" standalone="no"?>
<svg width="24px" height="24px" viewBox="0 0 24 24" version="1.1" xmlns="http://www.w3.org/2000/svg" xmlns:xlink="http://www.w3.org/1999/xlink">
    <!-- Generator: Sketch 46.2 (44496) - http://www.bohemiancoding.com/sketch -->
    <title>Icon/utility/Indigo/24px/Print</title>
    <desc>Created with Sketch.</desc>
    <defs></defs>
    <g id="Symbols" stroke="none" stroke-width="1" fill="none" fill-rule="evenodd">
        <g id="Icon/utility/Indigo/24px/Print">
            <rect id="Rectangle-6" x="0" y="0" width="24" height="24"></rect>
            <path d="M21,16 C21,16.55 20.55,17 20,17 L19,17 L19,14 C19,13.45 18.55,13 18,13 L6,13 C5.45,13 5,13.45 5,14 L5,17 L4,17 C3.45,17 3,16.55 3,16 L3,11 C3,10.45 3.45,10 4,10 L20,10 C20.55,10 21,10.45 21,11 L21,16 Z M7,21 L17,21 L17,15 L7,15 L7,21 Z M7,8 L17,8 L17,3 L7,3 L7,8 Z M20,8 L19,8 L19,2 C19,1.45 18.55,1 18,1 L6,1 C5.45,1 5,1.45 5,2 L5,8 L4,8 C2.344,8 1,9.344 1,11 L1,16 C1,17.656 2.344,19 4,19 L5,19 L5,22 C5,22.55 5.45,23 6,23 L18,23 C18.55,23 19,22.55 19,22 L19,19 L20,19 C21.656,19 23,17.656 23,16 L23,11 C23,9.344 21.656,8 20,8 L20,8 Z" id="Print" fill="#1F2555"></path>
        </g>
    </g>
</svg>

<?xml version="1.0" encoding="utf-8"?>
<!-- Generator: Adobe Illustrator 24.0.3, SVG Export Plug-In . SVG Version: 6.00 Build 0)  -->
<svg version="1.1" id="Layer_1" xmlns="http://www.w3.org/2000/svg" xmlns:xlink="http://www.w3.org/1999/xlink" x="0px" y="0px"
	 viewBox="0 0 24 24" enable-background="new 0 0 24 24" xml:space="preserve">
<path id="Print" fill-rule="evenodd" clip-rule="evenodd" d="M21,16c0,0.5-0.5,1-1,1h-1v-3c0-0.6-0.5-1-1-1H6c-0.6,0-1,0.4-1,1v3H4
	c-0.5,0-1-0.5-1-1v-5c0-0.6,0.5-1,1-1h16c0.5,0,1,0.4,1,1V16z M7,21h10v-6H7V21z M7,8h10V3H7V8z M20,8h-1V2c0-0.5-0.5-1-1-1H6
	C5.4,1,5,1.4,5,2v6H4c-1.7,0-3,1.3-3,3v5c0,1.7,1.3,3,3,3h1v3c0,0.5,0.4,1,1,1h12c0.5,0,1-0.5,1-1v-3h1c1.7,0,3-1.3,3-3v-5
	C23,9.3,21.7,8,20,8L20,8z"/>
</svg>
